X: 39288
T: Take A Message To Julie
R: reel
M: 4/4
K: Edorian
EBAG AE~E2|GBdB cA~A2|EBAG AE~E2|GBdG- GBdG|
EBAG AE~E2|GBdB cA~A2|edBA BE~E2|1 DE F/E/D ~E3D:|2 DEFD E3d||
|:eB~B2 GBeB|dA~A2 GAdA|=cG~G2 EGcG|cAAd- dA e2|
eB~B2 GBeB|dA~A2 GAdA|EDGB AF~F2|1 DE F/E/D E3d:|2 DE F/E/D ~E3D||

